X:1
T:Cantabo Domino in vita mea - Schütz
T:#
%%score 1 2 3 4
L:1/8
Q:1/4=100
M:2/2
K:C
V:1 treble nm="Violin I" snm="Vn I"
V:2 treble nm="Violin II" snm="Vn II"
V:3 treble-8 nm="Tenor" snm="T"
V:4 bass nm="Continuo"
V:1
 z16 || z12 |[Q:1/4=200] z12 | z8 | z8 x4 | z16 ||[Q:1/4=100] z12 | %7
[M:3/2][Q:1/4=200][Q:1/4=200][Q:1/4=200] z12 |[Q:1/4=200] z12 |[Q:1/4=200] z12 | z12 | z12 | z12 | %13
 z12 || z8 x4 |[M:2/2][Q:1/4=90][Q:1/4=90][Q:1/4=90] z8 x4 |[Q:1/4=90] z8 |[Q:1/4=90] z8 | z8 | %19
[M:2/2][K:treble] z4 z"^Sinfonia" d g2 | e2 z e a2 ^f2 | z2 z g =fe d>c | c2 z2 z c f2 | %23
 d2 z2 z cBA | A>^G Ae a2 ^f2 | z d g2 e2 z c | f2 dF GF E>D | D2 z2 z d g2 | e2 z d cB A>G | G8 || %30
[M:3/2][Q:1/4=200] z12 | z12 | z12 | z12 |[M:3/2][Q:1/4=200][Q:1/4=200][Q:1/4=200] z12 | z12 | %36
[Q:1/4=200] z12 | z12 | z12 | z12 | z12 | z12 | z12 |[M:3/2] z12 | z12 | z12 | z12 | z12 | z12 | %49
 z12 |[M:3/2] z12 | z12 | z12 | z12 | z12 | z12 | z12 | z12 |[M:3/2] G2 A2 B2 c2 d2 e2 | %59
 d2 c2 B2 A2 G2 F2 | E2 D2 C2 B,2 A,4 | G,8 z4 | z12 | z12 | E2 G2 A2 B2 c2 d2 | %65
 e2 d2 c2 B2 A2 G2 | F2 E2 D2 C2 B,4 | A,8 z4 | z12 | z12 | D2 E2 ^F2 A2 B2 c2 | %71
 d2 e2 d2 c2 B2 A2 | G2 F2 E4 D4 ||[M:2/2][Q:1/4=100] D8 x4 | E3 ^F G4- x4 | G4 ^F4 | %76
[M:2/2][Q:1/4=100][Q:1/4=100][Q:1/4=100] !fermata!G8 | z8 |[Q:1/4=100] z8 || %79
[M:3/2][Q:1/4=200] z12 | z12 | z12 | z12 | z12 | z12 | z12 | z12 | %87
[M:3/2][Q:1/4=200][Q:1/4=200][Q:1/4=200] z12 | z12 |[Q:1/4=200] z12 | z12 | z12 | z12 | z12 | z12 | %95
 z12 | z12 || z8 x4 |[M:2/2] z8 x4 | z8 |[Q:1/4=90] z8 | z8 | z8 | z8 | z8 | %105
[M:2/2][Q:1/4=90][Q:1/4=90][Q:1/4=90] z8 | z8 |[Q:1/4=90] z8 | z8 | z4 e4 | f4 g4 | d6 d2 | %112
 e4 z2 ^f2 | g4 a4 | e6 e2 | ^f8 | z8 | z8 | d/B/c/A/ B/G/A/B/ c/A/B/G/ A/^F/G/A/ | BdcB A2 G2 | %120
 z4 g/e/f/d/ e/c/d/e/ | f/d/e/c/ d/B/c/d/ egfe | d2 c2 z4 | z8 | z4 g/^f/g/e/ f/d/e/f/ | %125
 g/e/f/d/ e/c/d/e/ fagf | e2 d2 z4 | z8 | z8 | e/c/d/B/ c/A/B/c/ d/B/c/A/ B/G/A/B/ | A4 A3 A | %131
 A2 G2 A4 | B8 ||[M:3/2][Q:1/4=200] z12 | z12 | z12 | %136
[M:3/2][Q:1/4=200][Q:1/4=200][Q:1/4=200] G2 A2 B2 G2 B2 c2 | d2 c2 d2 e2 f2 g2 | %138
[Q:1/4=200] a2 b2 c'2 a2 b4 | c'8 z4 | z12 | z12 | A2 B2 c2 A2 c2 d2 | e2 d2 e2 f2 g2 a2 | %144
 b2 c'2 d'2 b2 ^c'4 | d'8 z4 | A2 F2 A2 B2 c2 d2 | e2 ^f2 g2 e2 f4 ||[M:2/2][Q:1/4=100] g8 x4 | %149
 G2 AB cBAG x4 | d8 | d16 |] x8 | x16 |] %154
V:2
 z16 || z12 | z12 | z8 | z8 x4 | z16 || z12 |[M:3/2] z12 | z12 | z12 | z12 | z12 | z12 | z12 || %14
 z8 x4 |[M:2/2] z8 x4 | z8 | z8 | z8 |[M:2/2][K:treble] z8 | z G c2 A2 z A | d2 Be dc c>B | %22
 cG c2 A2 z2 | z B e2 cedc | B>A A2 z A d2 | B2 z G c2 A2 | z2 z D EDD^C | DA d2 B2 z2 | %28
 z2 z B AG G>^F | G8 ||[M:3/2] z12 | z12 | z12 | z12 |[M:3/2] z12 | z12 | z12 | z12 | z12 | z12 | %40
 z12 | z12 | z12 |[M:3/2] z12 | z12 | z12 | z12 | z12 | z12 | z12 |[M:3/2] z12 | z12 | z12 | z12 | %54
 z12 | z12 | z12 | z12 |[M:3/2] z12 | z12 | z12 | G2 B2 c2 d2 e2 f2 | g2 f2 e2 d2 c2 B2 | %63
 A2 G2 F2 E2 D4 | C8 z4 | z12 | z12 | A2 c2 d2 e2 f2 g2 | a2 g2 f2 e2 d2 c2 | _B2 A2 G2 F2 E4 | %70
 D2 ^C2 D2 ^F2 G2 A2 | B2 c2 B2 A2 G2 ^F2 | E2 D2 C2 B,2 A,4 ||[M:2/2] G,8 x4 | G2 AB cBAG x4 | %75
 d8 |[M:2/2] !fermata!d8 | z8 | z8 ||[M:3/2] z12 | z12 | z12 | z12 | z12 | z12 | z12 | z12 | %87
[M:3/2] z12 | z12 | z12 | z12 | z12 | z12 | z12 | z12 | z12 | z12 || z8 x4 |[M:2/2] z8 x4 | z8 | %100
 z8 | z8 | z8 | z8 | z8 |[M:2/2] z8 | z8 | z8 | z8 | z4 c4 | c4 G4 | G6 G2 | G4 z2 d2 | d4 A4 | %114
 A6 A2 | A8 | z8 | z8 | B/G/A/F/ G/E/F/G/ A/F/G/E/ ^F/D/E/F/ | GBAG ^F2 G2 | z8 | %121
 d/B/c/A/ B/G/A/B/ cedc | B2 c2 z4 | z8 | z2 e/^c/d/B/ c/A/B/c/ d/B/=c/A/ | %125
 B/G/A/B/ c/A/B/G/ Afed | ^c2 d2 z4 | z8 | z2 a/^f/g/e/ f/d/e/f/ g/e/=f/d/ | e4 z4 | ^F3 F F2 E2 | %131
 ^F2 G4 F2 | G8 ||[M:3/2] d2 c2 B2 d2 c2 B2 | A2 G2 A2 B2 c2 d2 | e2 ^f2 g2 e2 f4 |[M:3/2] g8 z4 | %137
 z12 | z12 | e2 d2 c2 e2 d2 c2 | B2 A2 B2 c2 d2 e2 | ^f2 g2 a2 f2 ^g4 | a8 z4 | z12 | z12 | %145
 d2 e2 f2 d2 f2 g2 | a4 F2 G2 A2 B2 | c2 B2 A2 G2 d4 ||[M:2/2] d8 x4 | E3 F G4- x4 | G4 ^F4 | %151
 G16 |] x8 | x16 |] %154
V:3
"^Psalm 103:33 (Vulgate)""^Cantabo Domino in vita mea, SWV 260""^Heinrich Schütz\n (1585-1672)" z2 G2 G4- x8 || %1
w: Can- ta\-|
 G3 (^F G4) x4 |[M:3/2] d4 G4 A4 | B6 B2 B4 | c4 c4 B4 | c8 c4 x4 ||[M:2/2] z2 A2 A4- x4 | %7
w: * bo, *|can- ta- bo|Do- mi- no|in vi- ta|me- a,|can- ta\-|
 A3 G A4 x4 |[M:3/2] c4 F4 G4 |[M:3/2][K:treble-8] A6 A2 A4 | F4 E6 D2 | D8 D4 | A4 d4 ^c4 | %13
w: * bo, *|can- ta- bo|Do- mi- no|in vi- ta|me- a,|can- ta- bo|
 d6 d2 d4 || =c4 B6 A2 | A8 A4 |[M:2/2] z2 z D A2 ^FA |[M:2/2][K:treble-8] d2 Bg ecc>B | %18
w: Do- mi- no|in vi- ta|me- a,|can- ta- bo, can-|ta- bo, can- ta- bo Do- mi-|
 cG c2 A^F B2 | GE^FA A>^GAE | A2 ^FD G2 Ee | dBA>G G4 | z8 | z8 | z8 | z8 | z8 | z8 | z8 | z8 || %30
w: no, can- ta- bo, can- ta-|bo, can- ta- bo Do- mi- no, can-|ta- bo, can- ta- bo, can-|ta- bo Do- mi- no.|||||||||
 z8 x4 | z8 x4 |[M:3/2] d4 B4 d4 | G4 G4 B4 | (A2 G2 A2 E2 ^F2 G2 | A2 B2 c2 A2 d2 B2 | %36
w: ||In vi- ta|me- a can-|ta\- * * * * *||
[M:3/2][K:treble-8] c2 B2 c2 G2 A2 B2 | c2 d2 e2 c2 f2 d2 | e6 d2 c4) | B4 A6 B2 | ^G12 | %41
w: |||bo Do- mi-|no,|
 ^G6 A2 B2 G2 | A4 A4 z4 | B6 c2 d2 B2 | c4 c4 z4 | d6 e2 f2 d2 | e4 e2 e2 d4 | c4 c4 B4 | c12 | %49
w: psal- lam De- o|me- o,|psal- lam De- o|me- o,|psal- lam De- o|me- o, quam- di-|u fu- e-|ro,|
 A6 B2 c2 A2 | d4 d4 z4 | B6 c2 d2 B2 | e4 e2 e2 d4 | c4 B6 B2 | A2 E4 ^F2 G2 E2 | ^F6 G2 A2 F2 | %56
w: psal- lam De- o|me- o,|psal- lam De- o|me- o, quam- di-|u fu- e-|ro, psal- lam De- o,|psal- lam De- o,|
 G6 A2 _B2 G2 | A4 A2 A2 G4 | F4 E6 D2 | D12 | z12 | z12 | G6 G2 ^F4 | G8 z4 | z12 | c6 c2 B4 | %66
w: psal- lam De- o|me- o, quam- di-|u fu- e-|ro.|||Al- le- lu-|ja,||Al- le- lu-|
 c8 z4 | z12 | A6 A2 ^G4 | A8 z4 | z12 | d6 d2 ^c4 | d8 z4 || z12 | G6 G2 ^F4 |[M:2/2] G4 G4- | %76
w: ja,||Al- le- lu-|ja,||Al- le- lu-|ja,||Al- le- lu-|ja, Al\-|
 G4 G4 | A8 |[M:2/2][K:treble-8] !fermata!G8 || d8- x4 | d4 d3 c x4 |[M:3/2] B8 d4 | A4 A4 B4 | %83
w: * le-|lu-|ja.|Do\-|* * mi-|no can-|ta- bo, can-|
 c4 c4 B4 | A8 A4 | G8 G4 | z12 | z12 | z12 |[M:3/2][K:treble-8] z4 z4 e4 | B4 B4 c4 | d4 d4 d4 | %92
w: ta- bo in|vi- ta|me- a,||||can-|ta- bo, can-|ta- bo in|
 d8 ^c4 | d8 d4 | z4 z4 d4 | A4 A4 B4 | c4 c4 B4 || A8 A4 | G8 G4 |[M:2/2] x8 | %100
w: vi- ta|me- a,|can-|ta- bo, can-|ta- bo in|vi- ta|me- a.||
[M:2/2][K:treble-8] z2 dB B3 A | B2 B2 z2 dB | B3 A B2 B2 | z2 A2 A2 B2 | B3 A A4 | z2 cA A2 G2 | %106
w: De- o psal- lam|me- o, me- o|De- o psal- lam|quam- di- u|fu- e- ro,|psal- lam De- o|
 A2 A2 z2 cA | A3 G A2 A2 | z2 G2 G2 A2 | A6 G2 | G8 | z4 G4 | A4 c4 | B6 B2 | c4 z2 A2 | B4 d4 | %116
w: me- o, De- o|me- o psal- lam|quam- di- u|fu- e-|ro,|quam-|di- u|fu- e-|ro, quam-|di- u|
 ^c6 c2 | d8 | (d/B/c/A/ B/G/A/B/ c/A/B/G/ A/^F/G/A/ | B)dcB A2 G2 | z8 | z4 (d/B/c/A/ B/G/A/B/ | %122
w: fu- e-|ro,|psal\- * * * * * * * * * * * * * * *|* lam De- o me- o,||psal\- * * * * * * *|
 c/A/B/G/ A/^F/G/A/ B)dcB | A2 G2 z4 | z4 (e/c/d/B/ c/A/B/c/ | d/B/c/A/ B/G/A/B/ c)edc | B2 A2 z4 | %127
w: * * * * * * * * * lam De- o|me- o,|psal\- * * * * * * *|* * * * * * * * * lam De- o|me- o,|
 z8 | (A/^F/G/E/ F/D/E/F/ G/E/=F/D/ E/G/A/B/ | c)edc d2 c2 | (e/c/d/B/ c/A/B/c/ d/B/c/A/ B/G/A/B/ | %131
w: |psal\- * * * * * * * * * * * * * * *|* lam De- o me- o,|psal\- * * * * * * * * * * * * * * *|
 c/A/B/G/ A/^F/G/A/ B/G/A/F/ G/E/F/G/ | A3) A (A>B c2- || c2) B2 A4 x4 | G8 x4 |[M:3/2] z12 | z12 | %137
w: |* lam De\- * *|* o me-|o.|||
 G6 G2 A4 |[M:3/2][K:treble-8] G8 z4 | z12 | c6 c2 d4 | c8 z4 | z12 | A6 A2 B4 | A8 z4 | z12 | %146
w: Al- le- lu-|ja,||Al- le- lu-|ja,||Al- le- lu-|ja,||
 d6 d2 e4 | d8 z4 || z12 | G6 G2 A4 |[M:2/2] G4"^passagio" G4- | G4 G4 x8 |] A8 | G16 |] %154
w: Al- le- lu-|ja,||Al- le- lu-|ja, Al\-|* le-|lu-|ja.|
V:4
 G,,16 ||[M:3/2] G,,4 G,,4 D,4 | G,6 G,2 G,4 | E,4 F,4 G,4 | C,8 C,4 |[M:2/2] F,,16 || %6
w: ||||||
[M:3/2] F,,4 F,,4 C,4 |[M:3/2] F,,8 F,,4 | D,,4 A,,8 | D,,12 | D,4 D,4 A,,4 | D,8 D,4 | A,,4 E,8 | %13
w: |||||||
 A,,8 A,,4 ||[M:2/2] A,,2 D,2 ^C,2 D,2 x4 |[M:2/2] B,,2 E,2 C,2 G,2 x4 | C,2 A,,2 D,2 B,,2 | %17
w: |* * 6 *|||
 E,2 D,2 E,2 A,,2 | ^C,2 D,2 B,,2 =C,2 | G,,2 D,2 G,,3 G, | C2 A,2 ^F,2 D,2 | B,,2 E,2 F,2 G,2 | %22
w: |* * 6 *||* * 6 *|* * 6~~5 4~~~3|
 C,2 E,2 F,2 D,2 | G,2 E,2 A,2 D,2 | E,2 A,2 ^F,2 D,2 | G,2 E,2 C,2 =F,2 | D,2 _B,,2 G,,2 A,,2 | %27
w: * 6 * *|* * * 6~~~5|||* * 6~~~5 *|
 D,2 ^F,2 G,2 E,2 | C,2 B,,2 C,2 D,2 | G,,8 ||[M:3/2] G,,12 | G,4 E,4 G,4 | D,4 C,4 B,,4 | %33
w: * 6 * *|* 6 6~~~~5 *||||* 6 *|
 A,,4 A,4 G,4 |[M:3/2] F,4 E,4 D,4 | C,8 B,,4 | C,6 B,,2 A,,4 | G,,4 F,,4- F,,4 | E,,12 | E,,12 | %40
w: |* 6 *|||* 7 6|||
 F,,6 G,,2 A,,2 F,,2 | G,,12 | A,,6 B,,2 C,2 A,,2 | B,,12 | C,8 F,4- | F,4 G,4- G,4 | %46
w: ||||* 6|5 4 3|
 C,6 D,2 E,2 C,2 | F,8 E,4 | D,6 E,2 F,2 D,2 | E,8 D,4 | C,8 D,4- | D,4 E,8 | ^C,12 | D,12 | %54
w: |* 6|||||||
 G,,12 | F,,8 G,,4- | G,,4 A,,8 | D,12 | G,,8 A,,4 | B,,8 B,,4 | C,8 D,4 | G,,4 G,4 F,4 | E,8 E,4 | %63
w: |||||6 *|||* 6|
 F,8 G,4 | C,8 B,,4 | A,,8 C,4 | D,8 E,4 | A,,4 A,4 G,4 | F,8 F,4 | G,8 A,4 | D,8 C,4 | B,,8 B,,4 | %72
w: |* 6|* 6|||* 6|||* 6|
 C,8 D,4 ||[M:2/2] G,,8 x4 | C,4 E,4 x4 | D,8 |[M:2/2] !fermata!G,,8 | G,,A,,B,,C, D,E,^F,D, | %78
w: ||||||
 G,G,,B,,C, D,2- D,2 ||[M:3/2] G,,8 G,,4 | D,6 C,2 B,,4 | A,,8 B,,4 | C,8 D,4 | G,,8 G,4 | %84
w: * * * * 4 *||||||
 D,4 D,4 E,4 | F,4 F,4 A,4 | F,8 G,4 |[M:3/2] C,8 C,4 | G,8 A,4 | _B,8 ^F,4 | G,8 A,4 | D,8 D,4 | %92
w: |||||* 6|||
 G,,4 G,,4 G,4 | F,6 E,2 D,4 | C,8 E,4 | C,8 D,4 | G,,8 G,,4 ||[M:2/2] x12 |[M:2/2] G,,8 x4 | %99
w: |* * 6||||||
 G,,4 G,,4- | G,,4 G,,4 | F,,3 E,, D,,2- D,,2 | E,,4 A,,4 | F,,8 | F,,4 F,,4- | F,,4 F,,4 | %106
w: ||* * 5 6|||||
 E,,3 D,, C,,2- C,,2 | D,,8 | G,,8 | C,8 | F,4 E,4 | G,6 G,2 | C,4 z2 D,2 | G,4 ^F,4 | A,6 A,2 | %115
w: * * 5 6||||* 6|||* 6||
 D,8 | ^F,2 G,2 E,2 D,2 | B,,2 C,2 D,2 G,,2 | G,3 F, E,2 D,2 | B,,2 C,2 D,2 G,,2 | %120
w: |6 * 6~~~~~~~5 *|||6 6~~~~5 * *|
 A,,2 D,2 G,2 C,2 | D,2 G,,2 C,2 F,2 | G,2 C,2 C2 A,2 | B,2 G,2 A,2 D,2 | E,2 A,,2 A,2 D,2 | %125
w: |* * * 6~~~~~5||||
 G,2 C,2 F,2 G,2 | A,,2 D,2 G,,2 C,2 | A,,2 E,,2 G,,2 C,,2 | C,2 A,,2 D,2 G,2 | %129
w: * * * 6~~~5||* 6 * *||
 C,2 A,,2 G,,2 B,,2 | D,6 C,2 | D,6- D,2 | G,,8 ||[M:3/2] G,8 G,4 | F,4 F,6 E,D, | C,4 E,4 D,4 | %136
w: * * * 6||3~~~~4 3|||||
[M:3/2] G,,4 G,4 A,4 | _B,4 B,6 A,G, | F,4 A,4 G,4 | C6 B,2 A,4 | G,4 G,6 F,E, | D,4 F,4 E,4 | %142
w: ||||||
 A,,4 A,4 B,4 | C4 C6 B,A, | G,4 B,4 A,4 | D4 D,4 E,4 | F,4 F,6 E,D, | C,4 E,4 D,4 || %148
w: ||||||
[M:2/2] G,,8 x4 | C,4 E,4 x4 | D,4- D,4 | G,,16 |] x8 | x16 |] %154
w: ||4 3||||

